icons/lightning-light.svg

<svg xmlns="http://www.w3.org/2000/svg" width="256" height="256" fill="none"><path fill="#F4F2ED" d="M196 0H60C26.863 0 0 26.863 0 60v136c0 33.137 26.863 60 60 60h136c33.137 0 60-26.863 60-60V60c0-33.137-26.863-60-60-60"/><path fill="#792EE5" d="m128 28 86.603 50v100L128 228l-86.602-50V78z"/><path fill="#fff" d="m134.875 118 7.5-37.5-40.625 40 20 18.75-8.125 37.5 40.625-39.375z"/></svg>

<svg width="256" height="256" viewBox="0 0 256 256" fill="none" xmlns="http://www.w3.org/2000/svg">
<path d="M196 0H60C26.8629 0 0 26.8629 0 60V196C0 229.137 26.8629 256 60 256H196C229.137 256 256 229.137 256 196V60C256 26.8629 229.137 0 196 0Z" fill="#F4F2ED"/>
<path d="M128 28L214.603 78V178L128 228L41.3975 178V78L128 28Z" fill="#792EE5"/>
<path d="M134.875 118L142.375 80.5L101.75 120.5L121.75 139.25L113.625 176.75L154.25 137.375L134.875 118Z" fill="white"/>
</svg>
